assets/dist/images/features/integrations/segment.svg

<svg xmlns="http://www.w3.org/2000/svg" xmlns:xlink="http://www.w3.org/1999/xlink" width="114" height="114" viewBox="0 0 114 114">
  <defs>
    <circle id="segment-b" cx="50" cy="50" r="50"/>
    <filter id="segment-a" width="122%" height="122%" x="-11%" y="-9%" filterUnits="objectBoundingBox">
      <feMorphology in="SourceAlpha" operator="dilate" radius="1" result="shadowSpreadOuter1"/>
      <feOffset dy="2" in="shadowSpreadOuter1" result="shadowOffsetOuter1"/>
      <feGaussianBlur in="shadowOffsetOuter1" result="shadowBlurOuter1" stdDeviation="3"/>
      <feComposite in="shadowBlurOuter1" in2="SourceAlpha" operator="out" result="shadowBlurOuter1"/>
      <feColorMatrix in="shadowBlurOuter1" values="0 0 0 0 0.207843137   0 0 0 0 0.258823529   0 0 0 0 0.329411765  0 0 0 0.101137908 0"/>
    </filter>
    <polygon id="segment-c" points=".015 .231 46.877 .231 46.877 47.985 .015 47.985"/>
  </defs>
  <g fill="none" fill-rule="evenodd" transform="translate(7 5)">
    <use fill="#000" filter="url(#segment-a)" xlink:href="#segment-b"/>
    <circle cx="50" cy="50" r="50.5" fill="#FFF" stroke="#E1E1E1"/>
    <g transform="translate(27 26)">
      <mask id="segment-d" fill="#fff">
        <use xlink:href="#segment-c"/>
      </mask>
      <path fill="#50B68C" d="M8.0505,37.3875 C6.557,37.3875 5.3465,38.598 5.3465,40.0915 C5.3465,41.585 6.557,42.79575 8.0505,42.79575 C9.54375,42.79575 10.7545,41.585 10.7545,40.0915 C10.7545,38.598 9.54375,37.3875 8.0505,37.3875 Z M37.8675,4.70675 C36.374,4.70675 35.1635,5.91725 35.1635,7.41075 C35.1635,8.90425 36.374,10.11475 37.8675,10.11475 C39.361,10.11475 40.5715,8.90425 40.5715,7.41075 C40.5715,5.92125 39.36725,4.7125 37.87775,4.70675 L37.8675,4.70675 Z M18.295,15.6465 L18.295,18.95325 C18.295,19.45125 18.69875,19.85475 19.1965,19.85475 L45.97975,19.85475 C46.4735,19.849 46.87075,19.447 46.87075,18.95325 L46.87075,15.6465 C46.87075,15.14875 46.46725,14.74525 45.9695,14.74525 L19.186,14.74525 C18.69025,14.74825 18.28975,15.15075 18.28975,15.6465 L18.295,15.6465 Z M28.5965,30.93375 L28.5965,27.63225 C28.5965,27.13425 28.19275,26.73075 27.695,26.73075 L0.91175,26.73075 C0.414,26.725 0.00575,27.124 0,27.62175 C0,27.62525 0,27.62875 0,27.63225 L0,30.93375 C0,31.4315 0.4035,31.835 0.90125,31.835 L27.68475,31.835 C28.1825,31.84075 28.59075,31.44175 28.5965,30.944 C28.5965,30.94075 28.5965,30.93725 28.5965,30.93375 Z M46.6905,26.499 C46.54125,26.30675 46.31975,26.184 46.0775,26.159 L42.78625,25.82425 C42.3015,25.77275 41.86425,26.1185 41.8025,26.602 C40.4145,36.88025 30.957,44.087 20.679,42.699 C19.25625,42.507 17.86,42.15225 16.51825,41.642 C16.05875,41.4675 15.545,41.698 15.3695,42.157 L14.09725,45.21125 C13.9045,45.667 14.11775,46.193 14.57375,46.38575 C14.5865,46.39125 14.59925,46.39625 14.6125,46.401 C26.9205,51.1365 40.737,44.9975 45.47225,32.68925 C46.15825,30.9065 46.62775,29.04775 46.87075,27.15325 C46.9,26.92 46.835,26.6845 46.6905,26.499 Z M0.19575,18.86575 C0.06575,18.65875 0.02675,18.40725 0.0875,18.1705 C2.801,7.61725 12.31225,0.2375 23.20875,0.230726535 C25.879,0.227 28.531,0.67275 31.05325,1.54925 C31.5295,1.72125 31.7765,2.2465 31.60475,2.72275 C31.6045,2.723 31.6045,2.72325 31.60425,2.72375 L30.435,5.814 C30.25775,6.26275 29.75675,6.4905 29.302,6.329 C27.34175,5.65075 25.283,5.30275 23.20875,5.299 C18.91575,5.29475 14.75425,6.78025 11.4345,9.502 C8.315,12.02675 6.0815,15.47975 5.058,19.36025 C4.94125,19.83525 4.4615,20.12575 3.98675,20.00925 L0.76225,19.28825 C0.52325,19.2315 0.31825,19.0785 0.19575,18.86575 L0.19575,18.86575 Z" mask="url(#segment-d)"/>
    </g>
  </g>
</svg>

<svg xmlns="http://www.w3.org/2000/svg" xmlns:xlink="http://www.w3.org/1999/xlink" width="114" height="114" viewBox="0 0 114 114"><defs><filter id="a" width="122%" height="122%" x="-11%" y="-9%" filterUnits="objectBoundingBox"><feMorphology in="SourceAlpha" operator="dilate" radius="1" result="shadowSpreadOuter1"/><feOffset dy="2" in="shadowSpreadOuter1" result="shadowOffsetOuter1"/><feGaussianBlur in="shadowOffsetOuter1" result="shadowBlurOuter1" stdDeviation="3"/><feComposite in="shadowBlurOuter1" in2="SourceAlpha" operator="out" result="shadowBlurOuter1"/><feColorMatrix in="shadowBlurOuter1" values="0 0 0 0 0.207843137 0 0 0 0 0.258823529 0 0 0 0 0.329411765 0 0 0 0.101137908 0"/></filter><circle id="b" cx="50" cy="50" r="50"/><path id="c" d="M.015.231h46.862v47.754H.015z"/></defs><g fill="none" fill-rule="evenodd" transform="translate(7 5)"><use fill="#000" filter="url(#a)" xlink:href="#b"/><circle cx="50" cy="50" r="50.5" fill="#FFF" stroke="#E1E1E1"/><g transform="translate(27 26)"><mask id="d" fill="#fff"><use xlink:href="#c"/></mask><path fill="#50B68C" d="M8.05 37.388a2.704 2.704 0 100 5.407 2.704 2.704 0 000-5.407zM37.867 4.707a2.704 2.704 0 10.01 0h-.01zm-19.572 10.94v3.306c0 .498.404.902.901.902H45.98a.902.902 0 00.89-.902v-3.306a.901.901 0 00-.9-.902H19.185a.901.901 0 00-.896.902h.005zm10.301 15.287v-3.302a.902.902 0 00-.901-.901H.912a.902.902 0 00-.912.89v3.313c0 .497.404.901.901.901h26.784a.902.902 0 00.912-.891v-.01zm18.095-4.435a.892.892 0 00-.614-.34l-3.29-.335a.897.897 0 00-.984.778c-1.39 10.278-10.846 17.485-21.124 16.097a18.768 18.768 0 01-4.16-1.057.891.891 0 00-1.15.515l-1.272 3.054a.896.896 0 00.516 1.19c12.308 4.735 26.124-1.404 30.86-13.712a23.873 23.873 0 001.398-5.536.886.886 0 00-.18-.654zM.196 18.866a.891.891 0 01-.109-.695A23.889 23.889 0 0131.053 1.549a.917.917 0 01.552 1.174l-1.17 3.091a.896.896 0 01-1.133.515 18.737 18.737 0 00-6.093-1.03 18.542 18.542 0 00-11.774 4.203 18.875 18.875 0 00-6.377 9.858.886.886 0 01-1.071.65l-3.225-.722a.892.892 0 01-.566-.422z" mask="url(#d)"/></g></g></svg>
